X:480
T: Hausrat (189), S. 412
N: T0368
O: Luxemburg
S: Singendes Volk, Esch-Alzette, 1937 posth.]
N: Heffingen, fff Maria Berchem, 1907
R: Hochzeits-, Ehestandslied]
M: 3/4
L: 1/8
K: G
 | B2B2B2 | dccBBA | AAA2z2 |
B2G2A2 | B2z2
BB | ccc2dc | BBGG
GG | A2G2F2 | d2z2
cc | ccc2dc | BBGG
GG | A2G2F2 | G2z4

@@@ Tune index: 8534
